X: 21326
T: Keogh's
R: reel
M: 4/4
K: Adorian
AG|:E/G/EDG EAAE|GEDG EA,A,2|E/G/EDG EGAB|dGB/c/d g2bg|
edB/c/d gedB|A/B/AAG ABde|d2 B/c/d gbaf|1 gedB BAAG:|2 gedB BAAe||
EAA/A/A GEDE|G2BG dGBG|EAA/A/A GAB/c/d|edef g2bg|
edB/c/d gedB|A/B/AAG ABde|d2 B/c/d gbaf|1 gedB BAAe:|2 gedB BAAG||

